svgs/sharp-light/car-battery.svg

<svg xmlns="http://www.w3.org/2000/svg" viewBox="0 0 512 512"><!--! Font Awesome Pro 6.6.0 by @fontawesome - https://fontawesome.com License - https://fontawesome.com/license (Commercial License) Copyright 2024 Fonticons, Inc. --><path d="M64 64l128 0 0 32L64 96l0-32zm256 0l128 0 0 32L320 96l0-32zM32 160l0 256 448 0 0-256L32 160zM0 128l32 0 448 0 32 0 0 32 0 256 0 32-32 0L32 448 0 448l0-32L0 160l0-32zm384 80l0 16 0 32 32 0 16 0 0 32-16 0-32 0 0 32 0 16-32 0 0-16 0-32-32 0-16 0 0-32 16 0 32 0 0-32 0-16 32 0zM96 256l96 0 16 0 0 32-16 0-96 0-16 0 0-32 16 0z"/></svg>

<svg xmlns="http://www.w3.org/2000/svg" viewBox="0 0 512 512"><!--! Font Awesome Pro 6.4.0 by @fontawesome - https://fontawesome.com License - https://fontawesome.com/license (Commercial License) Copyright 2023 Fonticons, Inc. --><path d="M64 64H192V96H64V64zm256 0H448V96H320V64zM32 160V416H480V160H32zM0 128H32 480h32v32V416v32H480 32 0V416 160 128zm384 80v16 32h32 16v32H416 384v32 16H352V320 288H320 304V256h16 32V224 208h32zM96 256h96 16v32H192 96 80V256H96z"/></svg>
